X:623
T:no name
R:reel
Z:id:hn-reel-623
M:C|
K:D
d2fd eA~A2|BAFA dAFB|ABde fa~a2|baaf fe~e2|
d2fd eA~A2|BAFA dAFB|ABde fa~a2|1 fd (3efe d3A:|2 fd (3efe d3e||
|:faaf d2de|faaf eA~A2|BAFA defa|baaf fe~e2|
fa~a2 baaf|dfaf eA~A2|BAFA dfaf|1 ed (3efe d3e:|2 ed (3efe d3A||
